svg/color/ela.svg

<svg height="32" viewBox="0 0 32 32" width="32" xmlns="http://www.w3.org/2000/svg"><g fill="none" fill-rule="evenodd"><circle cx="16" cy="16" fill="#3fbadf" r="16"/><g fill="#fff" fill-rule="nonzero" transform="translate(6 7)"><path d="m5 15.1190142 5-2.8197953v5.6348905zm0-8.99999998 5-2.81979529v5.6348905z" fill-opacity=".4"/><path d="m20 12.2299995-5 2.8863191v-5.68631829zm0-8.99999996-5 2.88631909v-5.68631832z" fill-opacity=".7"/><path d="m5 15.1163186v-5.68361486l5 2.87121526zm0-8.99999997v-5.68361489l5 2.87121527z" fill-opacity=".8"/><path d="m15 15.1163186-5-2.8123996 5-2.87391869zm0-8.99999997-5-2.81239962 5-2.8739187z"/><path d="m15 15.1163186-5 2.8177908v-5.6301904zm0-8.99999997-5 2.8177908v-5.63019042z" fill-opacity=".6"/><path d="m5 9.43270374v5.68361486l-5.00001224-2.8854441zm0-9v5.68361489l-5.00001224-2.88544409z" fill-opacity=".5"/></g></g></svg>

<svg xmlns="http://www.w3.org/2000/svg" width="32" height="32" viewBox="0 0 32 32">
  <g fill="none" fill-rule="evenodd">
    <circle cx="16" cy="16" r="16" fill="#3FBADF"/>
    <g fill="#FFF" fill-rule="nonzero" transform="translate(6 7)">
      <path fill-opacity=".4" d="M5,15.1190142 L10,12.2992189 L10,17.9341094 L5,15.1190142 Z M5,6.11901422 L10,3.29921893 L10,8.93410943 L5,6.11901422 Z"/>
      <path fill-opacity=".7" d="M20,12.2299995 L15,15.1163186 L15,9.43000031 L20,12.2299995 Z M20,3.22999954 L15,6.11631863 L15,0.430000305 L20,3.22999954 Z"/>
      <path fill-opacity=".8" d="M5,15.1163186 L5,9.43270374 L10,12.303919 L5,15.1163186 Z M5,6.11631863 L5,0.432703737 L10,3.30391901 L5,6.11631863 Z"/>
      <path d="M15,15.1163186 L10,12.303919 L15,9.43000031 L15,15.1163186 Z M15,6.11631863 L10,3.30391901 L15,0.430000305 L15,6.11631863 Z"/>
      <path fill-opacity=".6" d="M15,15.1163186 L10,17.9341094 L10,12.303919 L15,15.1163186 Z M15,6.11631863 L10,8.93410943 L10,3.30391901 L15,6.11631863 Z"/>
      <path fill-opacity=".5" d="M5,9.43270374 L5,15.1163186 L-1.2244898e-05,12.2308745 L5,9.43270374 Z M5,0.432703737 L5,6.11631863 L-1.2244898e-05,3.23087454 L5,0.432703737 Z"/>
    </g>
  </g>
</svg>
